outputs/icons/device/usb_alt_round.svg

<svg xmlns="http://www.w3.org/2000/svg" width="1200" height="1200" fill="none"><g clip-path="url(#a)"><path fill="#000" d="M900 350.007H800c-27.5 0-50 22.5-50 50v99.998c0 27.5 22.5 50 50 50v100H650V250.007h50c20.5 0 32.5-23.5 20-40l-100-133.5c-10-13.5-30-13.5-40 0l-99.998 133.5c-12.5 16.5-.5 40 19.998 40h50v399.998H400.002v-103.5c41.5-22 69.001-67.998 57-121.498-8.499-38.5-38.499-70-76-80.5-73.5-20.5-141 35-141 105.5 0 42.5 25 77.998 60 96.498v103.5c0 55 45 100 100 100H550v152.5c-43 22.5-69.498 71-56.497 124.5 8.997 37.5 39.497 69 76.997 79 73 19.5 140-35 140-106 0-42.5-24.5-79-60-97.5v-152.5h150c55 0 100-45 100-100v-100c27.5 0 50-22.5 50-50v-99.998c-.5-27.5-23-50-50.5-50"/></g><defs><clipPath id="a"><path fill="#fff" d="M0 0h1200v1200H0z"/></clipPath></defs></svg>

<svg width="1200" height="1200" viewBox="0 0 1200 1200" fill="none" xmlns="http://www.w3.org/2000/svg"><g clip-path="url(#clip0_829_1805)"><path d="M900 350.007H800C772.5 350.007 750 372.507 750 400.007V500.005C750 527.505 772.5 550.005 800 550.005V650.005H650V250.007H700C720.5 250.007 732.5 226.507 720 210.007L620 76.507C610 63.007 590 63.007 580 76.507L480.002 210.007C467.502 226.507 479.502 250.007 500 250.007H550V650.005H400.002V546.505C441.502 524.505 469.003 478.507 457.002 425.007C448.503 386.507 418.503 355.007 381.002 344.507C307.502 324.007 240.002 379.507 240.002 450.007C240.002 492.507 265.002 528.005 300.002 546.505V650.005C300.002 705.005 345.002 750.005 400.002 750.005H550V902.505C507 925.005 480.502 973.505 493.503 1027.005C502.5 1064.505 533 1096.005 570.5 1106.005C643.5 1125.505 710.5 1071.005 710.5 1000.005C710.5 957.505 686 921.005 650.5 902.505V750.005H800.5C855.5 750.005 900.5 705.005 900.5 650.005V550.005C928 550.005 950.5 527.505 950.5 500.005V400.007C950 372.507 927.5 350.007 900 350.007Z" fill="black"/></g><defs><clipPath id="clip0_829_1805"><path width="24" fill="white" d="M0 0H1200V1200H0V0z"/></clipPath></defs></svg>
